docs/svgs/room-carport.svg

<svg viewBox="0 0 24 24" height="24px" width="24px" fill="#44739e" xmlns="http://www.w3.org/2000/svg"><title>hue:room-carport</title><desc>Source: https://github.com/arallsopp/hass-hue-icons</desc><path d="M 19.070312 13.234375 C 19.332031 13.359375 19.5 13.625 19.5 13.914062 L 19.5 17.972656 C 19.5 18.386719 19.164062 18.722656 18.75 18.722656 L 18 18.722656 L 18 19.867188 C 18 20.484375 17.492188 20.988281 16.875 20.988281 L 16.125 20.988281 C 15.507812 20.988281 15 20.484375 15 19.867188 L 15 18.722656 L 9 18.722656 L 9 19.847656 C 9 20.464844 8.492188 20.96875 7.875 20.96875 L 7.125 20.96875 C 6.507812 20.96875 6 20.464844 6 19.847656 L 6 18.722656 L 5.25 18.722656 C 4.835938 18.722656 4.5 18.386719 4.5 17.972656 L 4.5 13.914062 C 4.5 13.625 4.667969 13.359375 4.929688 13.234375 L 5.683594 12.882812 C 5.882812 12.785156 6.03125 12.609375 6.085938 12.390625 L 7.210938 8.050781 C 7.296875 7.71875 7.597656 7.488281 7.9375 7.488281 L 16.0625 7.488281 C 16.402344 7.488281 16.703125 7.71875 16.789062 8.050781 L 17.914062 12.390625 C 17.96875 12.609375 18.117188 12.785156 18.316406 12.882812 Z M 16.875 16.5 C 17.496094 16.5 18 15.996094 18 15.375 C 18 14.757812 17.496094 14.253906 16.875 14.253906 C 16.253906 14.253906 15.75 14.757812 15.75 15.375 C 15.75 15.996094 16.253906 16.5 16.875 16.5 Z M 13.5 16.5 C 13.914062 16.5 14.25 16.164062 14.25 15.75 C 14.25 15.339844 13.914062 15.003906 13.5 15.003906 L 10.5 15.003906 C 10.085938 15.003906 9.75 15.339844 9.75 15.75 C 9.75 16.164062 10.085938 16.5 10.5 16.5 Z M 7.125 14.25 C 6.503906 14.25 6 14.753906 6 15.375 C 6 15.992188 6.503906 16.496094 7.125 16.496094 C 7.746094 16.496094 8.25 15.992188 8.25 15.375 C 8.25 14.753906 7.746094 14.25 7.125 14.25 Z M 7.527344 11.800781 C 7.390625 12.273438 7.769531 12.742188 8.292969 12.742188 L 15.707031 12.742188 C 16.230469 12.742188 16.609375 12.273438 16.472656 11.800781 L 15.828125 9.550781 C 15.734375 9.226562 15.421875 9 15.066406 9 L 8.933594 9 C 8.578125 9 8.265625 9.226562 8.171875 9.550781 Z M 23.25 3 C 23.664062 3 24 3.335938 24 3.75 L 24 20.25 C 24 20.664062 23.664062 21 23.25 21 C 22.835938 21 22.5 20.664062 22.5 20.25 L 22.5 6.75 C 22.5 6.335938 22.164062 6 21.75 6 L 2.25 6 C 1.835938 6 1.5 6.335938 1.5 6.75 L 1.5 20.25 C 1.5 20.664062 1.164062 21 0.75 21 C 0.335938 21 0 20.664062 0 20.25 L 0 3.75 C 0 3.335938 0.335938 3 0.75 3 Z M 23.25 3 "/></svg>

<svg viewBox="0 0 24 24" height="24px" width="24px" fill="#44739e" xmlns="http://www.w3.org/2000/svg"><title>hue:room-carport</title><desc>Source: https://github.com/arallsopp/hass-hue-icons</desc><path d="M19.07,13.23c0.26,0.12,0.43,0.39,0.43,0.68v4.06c0,0.41-0.34,0.75-0.75,0.75H18v1.14 c0,0.62-0.51,1.12-1.12,1.12h-0.75c-0.62,0-1.12-0.5-1.12-1.12v-1.14H9v1.12c0,0.62-0.51,1.12-1.12,1.12H7.12 c-0.62,0-1.12-0.5-1.12-1.12v-1.12H5.25c-0.41,0-0.75-0.34-0.75-0.75v-4.06c0-0.29,0.17-0.55,0.43-0.68l0.75-0.35 c0.2-0.1,0.35-0.27,0.4-0.49l1.12-4.34C7.3,7.72,7.6,7.49,7.94,7.49h8.12c0.34,0,0.64,0.23,0.73,0.56l1.12,4.34 c0.05,0.22,0.2,0.39,0.4,0.49L19.07,13.23z M16.88,16.5C17.5,16.5,18,16,18,15.38c0-0.62-0.5-1.12-1.12-1.12s-1.12,0.5-1.12,1.12 C15.75,16,16.25,16.5,16.88,16.5z M13.5,16.5c0.41,0,0.75-0.34,0.75-0.75c0-0.41-0.34-0.75-0.75-0.75h-3 c-0.41,0-0.75,0.34-0.75,0.75c0,0.41,0.34,0.75,0.75,0.75H13.5z M7.12,14.25C6.5,14.25,6,14.75,6,15.38c0,0.62,0.5,1.12,1.12,1.12 s1.12-0.5,1.12-1.12C8.25,14.75,7.75,14.25,7.12,14.25z M7.53,11.8c-0.14,0.47,0.24,0.94,0.77,0.94h7.41c0.52,0,0.9-0.47,0.77-0.94 l-0.64-2.25C15.73,9.23,15.42,9,15.07,9H8.93C8.58,9,8.27,9.23,8.17,9.55L7.53,11.8z M23.25,3C23.66,3,24,3.34,24,3.75v16.5 c0,0.41-0.34,0.75-0.75,0.75s-0.75-0.34-0.75-0.75V6.75C22.5,6.34,22.16,6,21.75,6H2.25C1.84,6,1.5,6.34,1.5,6.75v13.5 C1.5,20.66,1.16,21,0.75,21S0,20.66,0,20.25V3.75C0,3.34,0.34,3,0.75,3H23.25z"/></svg>
